src/assets/_847692912.svg

<svg width="138" height="127" viewBox="0 0 138 127" fill="none" xmlns="http://www.w3.org/2000/svg">
<path fill-rule="evenodd" clip-rule="evenodd" d="M136.69 125.794C136.054 126.431 135.352 126.749 134.46 126.749C133.568 126.749 132.867 126.431 132.23 125.794C131.593 125.156 131.338 124.456 131.338 123.563C131.338 122.671 131.656 121.97 132.23 121.333C132.867 120.695 133.568 120.44 134.46 120.44C135.352 120.44 136.054 120.76 136.69 121.333C137.327 121.97 137.647 122.671 137.647 123.563C137.647 124.391 137.327 125.156 136.69 125.794ZM132.548 121.651C132.038 122.161 131.783 122.798 131.783 123.563C131.783 124.328 132.038 124.964 132.548 125.474C133.058 125.984 133.696 126.304 134.46 126.304C135.224 126.304 135.862 126.049 136.372 125.474C136.882 124.964 137.137 124.328 137.137 123.563C137.137 122.798 136.882 122.161 136.372 121.651C135.862 121.141 135.224 120.887 134.46 120.887C133.759 120.823 133.121 121.078 132.548 121.651ZM134.46 121.778V121.843H133.186V125.284H133.823V123.946H134.269C134.587 123.946 134.842 124.009 134.969 124.073C135.161 124.201 135.289 124.456 135.289 124.838V125.284H135.862V124.519C135.862 124.391 135.799 124.201 135.671 124.009C135.544 123.818 135.352 123.754 135.097 123.691C135.289 123.626 135.48 123.563 135.607 123.499C135.799 123.308 135.926 123.116 135.926 122.798C135.926 122.353 135.799 122.033 135.416 121.906C135.224 121.843 134.906 121.778 134.46 121.778ZM135.097 122.353C134.969 122.288 134.715 122.225 134.332 122.225H133.823V123.436H134.396C134.652 123.436 134.842 123.436 134.969 123.371C135.224 123.308 135.352 123.116 135.352 122.862C135.352 122.608 135.224 122.48 135.097 122.353Z" fill="black"/>
<path fill-rule="evenodd" clip-rule="evenodd" d="M113.686 0H24.4066C10.9607 0 0 10.6425 0 23.6416V102.98C0 116.171 10.5781 126.559 24.1519 126.559H113.495C127.068 126.559 137.647 116.171 137.647 102.98V23.6416C137.647 10.3874 127.132 0 113.686 0ZM134.906 102.98C134.906 114.706 125.475 123.818 113.431 123.818H24.1519C12.108 123.881 2.74033 114.706 2.74033 102.98V23.6416C2.74033 11.9161 12.2354 2.676 24.4066 2.676H113.749C125.666 2.676 134.969 11.853 134.969 23.6416V102.98H134.906Z" fill="#040300"/>
<path fill-rule="evenodd" clip-rule="evenodd" d="M134.906 102.98C134.906 114.706 125.475 123.818 113.431 123.818H24.1519C12.1081 123.881 2.74036 114.706 2.74036 102.98V23.6416C2.74036 11.9161 12.2355 2.67603 24.4066 2.67603H113.749C125.666 2.67603 134.969 11.853 134.969 23.6416V102.98H134.906Z" fill="#FFAB00"/>
<path fill-rule="evenodd" clip-rule="evenodd" d="M110.245 77.8086H98.8372L96.8619 65.3823L89.5341 77.6808H77.9989L85.0097 85.0732L79.2741 97.4991L91.8919 89.9797L101.77 97.6268L99.9216 85.0732L110.245 77.8086Z" fill="white"/>
<path fill-rule="evenodd" clip-rule="evenodd" d="M118.21 75.3229H100.94L98.2009 58.1177L88.1318 75.1956H86.2206C85.0732 73.2198 84.6274 70.3523 84.6274 68.5685C84.6274 65.6374 84.8182 62.7694 84.8182 59.0091C84.8182 54.0392 83.3527 51.4263 79.4646 50.4706V50.3432C87.6862 49.1958 91.4453 43.7149 91.4453 36.0677C91.4453 25.1718 84.1806 22.8136 74.6854 22.8136H49.1328L38.2982 74.0482H51.8718L55.8228 55.3775H64.8724C69.7158 55.3775 71.6912 57.7353 71.6912 62.2593C71.6912 65.7005 71.3088 68.4408 71.3088 71.0538C71.3088 72.0095 71.4995 74.303 72.2002 75.1956L82.0143 85.583L73.5392 103.745L91.6368 92.9751L105.146 103.363L102.661 86.2206L118.21 75.3229ZM68.9511 45.818H58.1178L60.7295 33.4561H70.799C74.3672 33.4561 78.1267 34.4118 78.1267 38.7451C78.1267 44.2895 73.8575 45.818 68.9511 45.818ZM91.892 89.9796L79.2741 97.499L85.0732 85.1362L78.0633 77.7442H89.5973L96.862 65.4454L98.8372 77.8715H110.308L99.9847 85.0732L101.833 97.691L91.892 89.9796Z" fill="#040300"/>
</svg>

<svg xmlns="http://www.w3.org/2000/svg" width="138" height="127" fill="none" viewBox="0 0 138 127"><path fill="#000" fill-rule="evenodd" d="M136.69 125.794c-.636.637-1.338.955-2.23.955s-1.593-.318-2.23-.955c-.637-.638-.892-1.338-.892-2.231s.318-1.593.892-2.23c.637-.638 1.338-.893 2.23-.893s1.594.32 2.23.893c.637.637.957 1.338.957 2.23 0 .828-.32 1.593-.957 2.231m-4.142-4.143q-.765.765-.765 1.912t.765 1.911c.51.51 1.148.83 1.912.83s1.402-.255 1.912-.83q.765-.764.765-1.911t-.765-1.912q-.766-.764-1.912-.764-1.052-.096-1.912.764m1.912.127v.065h-1.274v3.441h.637v-1.338h.446c.318 0 .573.063.7.127.192.128.32.383.32.765v.446h.573v-.765c0-.128-.063-.318-.191-.51-.127-.191-.319-.255-.574-.318.192-.065.383-.128.51-.192.192-.191.319-.383.319-.701 0-.445-.127-.765-.51-.892a3.1 3.1 0 0 0-.956-.128m.637.575c-.128-.065-.382-.128-.765-.128h-.509v1.211h.573c.256 0 .446 0 .573-.065.255-.063.383-.255.383-.509s-.128-.382-.255-.509" clip-rule="evenodd"/><path fill="#040300" fill-rule="evenodd" d="M113.686 0h-89.28C10.962 0 0 10.643 0 23.642v79.338c0 13.191 10.578 23.579 24.152 23.579h89.343c13.573 0 24.152-10.388 24.152-23.579V23.642C137.647 10.387 127.132 0 113.686 0m21.22 102.98c0 11.726-9.431 20.838-21.475 20.838h-89.28c-12.043.063-21.41-9.112-21.41-20.838V23.642c0-11.726 9.494-20.966 21.666-20.966h89.342c11.917 0 21.22 9.177 21.22 20.966v79.338z" clip-rule="evenodd"/><path fill="#ffab00" fill-rule="evenodd" d="M134.906 102.98c0 11.726-9.431 20.838-21.475 20.838h-89.28c-12.043.063-21.41-9.112-21.41-20.838V23.642c0-11.726 9.495-20.966 21.666-20.966h89.342c11.917 0 21.22 9.177 21.22 20.966v79.338z" clip-rule="evenodd"/><path fill="#fff" fill-rule="evenodd" d="M110.245 77.809H98.837l-1.975-12.427-7.328 12.299H78l7.01 7.392L79.275 97.5l12.618-7.52 9.878 7.648-1.848-12.554z" clip-rule="evenodd"/><path fill="#040300" fill-rule="evenodd" d="M118.21 75.323h-17.27L98.2 58.118 88.133 75.196H86.22c-1.148-1.976-1.594-4.844-1.594-6.627 0-2.932.191-5.8.191-9.56 0-4.97-1.465-7.583-5.353-8.538v-.128c8.221-1.147 11.98-6.628 11.98-14.275 0-10.896-7.264-13.254-16.76-13.254H49.133L38.298 74.048h13.574l3.95-18.67h9.05c4.844 0 6.82 2.357 6.82 6.881 0 3.442-.383 6.182-.383 8.795 0 .956.19 3.249.891 4.142l9.814 10.387-8.475 18.162 18.098-10.77 13.509 10.388-2.485-17.142zM68.951 45.818H58.118l2.611-12.362H70.8c3.568 0 7.328.956 7.328 5.29 0 5.543-4.27 7.072-9.176 7.072M91.892 89.98l-12.618 7.519 5.8-12.363-7.01-7.392h11.533l7.265-12.299 1.975 12.427h11.471l-10.323 7.201 1.848 12.618z" clip-rule="evenodd"/></svg>
